X: 31274
T: Paddy Healy's
R: reel
M: 4/4
K: Adorian
EAAG EAAD|G2BG dGBG|EAAG EAae|gedB (3ABA AG|
EAAG EAAD|GABG dGBG|EAAG EAae|gedB A2ce||
a2bg agef|gedc BGGg|a2bg agef|gedB ABce|
a2bg agef|gedc BGGg|ea~a2 eafa|gedB A2AG||

